local/share/icons/dracula-icons-main/scalable/apps/staruml.svg

<?xml version="1.0" encoding="UTF-8"?>
<svg xmlns="http://www.w3.org/2000/svg" xmlns:xlink="http://www.w3.org/1999/xlink" width="64" height="64" viewBox="0 0 64 64">
<path fill-rule="nonzero" fill="rgb(36.078431%, 61.176471%, 98.039216%)" fill-opacity="1" d="M 8.464844 1.324219 C 12.410156 1.324219 15.609375 4.519531 15.609375 8.464844 C 15.609375 12.410156 12.410156 15.609375 8.464844 15.609375 C 4.519531 15.609375 1.324219 12.410156 1.324219 8.464844 C 1.324219 4.519531 4.519531 1.324219 8.464844 1.324219 Z M 8.464844 1.324219 "/>
<path fill-rule="nonzero" fill="rgb(100%, 100%, 100%)" fill-opacity="1" d="M 8.472656 4.234375 C 8.269531 4.230469 8.082031 4.347656 7.992188 4.527344 L 6.910156 6.71875 L 4.496094 7.066406 C 4.0625 7.132812 3.886719 7.667969 4.203125 7.972656 L 5.953125 9.675781 L 5.539062 12.078125 C 5.464844 12.511719 5.921875 12.839844 6.308594 12.636719 L 8.46875 11.5 L 10.628906 12.636719 C 11.015625 12.84375 11.472656 12.511719 11.398438 12.078125 L 10.984375 9.671875 L 12.730469 7.96875 C 13.042969 7.664062 12.871094 7.128906 12.4375 7.066406 L 10.019531 6.714844 L 8.941406 4.527344 C 8.851562 4.351562 8.671875 4.234375 8.472656 4.234375 Z M 8.472656 4.234375 "/>
</svg>

<svg width="64" height="64" version="1.1" viewBox="0 0 16.933 16.933" xmlns="http://www.w3.org/2000/svg">
 <rect x="1.3229" y="1.3229" width="14.287" height="14.287" rx="7.1436" ry="7.1436" fill="#5c9cfa" stroke-width=".96425"/>
 <path d="m8.4723 4.2333c-0.20415-0.0023606-0.3915 0.11275-0.48165 0.29593l-1.0789 2.1878-2.4147 0.35106c-0.43513 0.063234-0.60846 0.59829-0.29306 0.90465l1.7477 1.7018-0.41173 2.4053c-0.073416 0.43231 0.37998 0.76168 0.76842 0.55822l2.1595-1.1362 2.1597 1.1352c0.38936 0.20495 0.84446-0.12638 0.76901-0.55987l-0.41342-2.4036 1.7464-1.7032c0.31459-0.3067 0.14085-0.84099-0.29396-0.904l-2.4149-0.35086-1.0797-2.1873c-0.088374-0.17862-0.26948-0.29257-0.46876-0.29493z" color="#000000" color-rendering="auto" dominant-baseline="auto" fill="#fff" image-rendering="auto" shape-rendering="auto" solid-color="#000000" style="font-feature-settings:normal;font-variant-alternates:normal;font-variant-caps:normal;font-variant-ligatures:normal;font-variant-numeric:normal;font-variant-position:normal;isolation:auto;mix-blend-mode:normal;shape-padding:0;text-decoration-color:#000000;text-decoration-line:none;text-decoration-style:solid;text-indent:0;text-orientation:mixed;text-transform:none;white-space:normal"/>
</svg>
